svgs/sharp-light/signal-bars-fair.svg

<svg xmlns="http://www.w3.org/2000/svg" viewBox="0 0 640 512"><!--! Font Awesome Pro 6.6.0 by @fontawesome - https://fontawesome.com License - https://fontawesome.com/license (Commercial License) Copyright 2024 Fonticons, Inc. --><path d="M224 288l0 192 32 0 0-192-32 0zm-32-32l32 0 32 0 32 0 0 32 0 192 0 32-32 0-32 0-32 0 0-32 0-192 0-32zM64 416l0 64 32 0 0-64-32 0zM32 384l32 0 32 0 32 0 0 32 0 64 0 32-32 0-32 0-32 0 0-32 0-64 0-32z"/></svg>

<svg xmlns="http://www.w3.org/2000/svg" viewBox="0 0 640 512"><!--! Font Awesome Pro 6.4.0 by @fontawesome - https://fontawesome.com License - https://fontawesome.com/license (Commercial License) Copyright 2023 Fonticons, Inc. --><path d="M224 288V480h32V288H224zm-32-32h32 32 32v32V480v32H256 224 192V480 288 256zM64 416v64H96V416H64zM32 384H64 96h32v32 64 32H96 64 32V480 416 384z"/></svg>
